Sources/FrostedUI/Resources/Icons.xcassets/star12.imageset/star-12.svg

<svg width="12" height="12" viewBox="0 0 12 12" fill="none" xmlns="http://www.w3.org/2000/svg" data-fui-icon="true">
  <path
    d="M4.43164 1.60339C5.12142 0.398813 6.87858 0.398814 7.56836 1.60339L7.63379 1.72742L8.32617 3.17175L9.92383 3.38171C11.4305 3.57929 12.0462 5.44094 10.9316 6.49304L9.76855 7.5907L10.0605 9.15808C10.3407 10.6646 8.74904 11.7999 7.41895 11.0819L6 10.3153L4.58105 11.0819C3.25115 11.7997 1.6593 10.6648 1.93945 9.15808L2.23047 7.5907L1.06836 6.49304C-0.0460737 5.44092 0.569622 3.57931 2.07617 3.38171L3.67285 3.17175L4.36621 1.72742L4.43164 1.60339ZM6.28125 2.37683C6.16831 2.14147 5.83169 2.14147 5.71875 2.37683L4.74707 4.40125V4.40222C4.70154 4.49675 4.61114 4.56237 4.50684 4.57605L2.64648 4.81921L2.27148 4.86902C2.01156 4.90312 1.90728 5.22249 2.09766 5.40222L3.73242 6.94519C3.80904 7.01761 3.84347 7.12394 3.82422 7.22742L3.41406 9.4325C3.36657 9.68903 3.63797 9.8858 3.86816 9.7616L5.85156 8.69128C5.94408 8.64137 6.05592 8.64137 6.14844 8.69128L8.13184 9.7616C8.33326 9.87033 8.56652 9.7332 8.58984 9.52527L8.58594 9.4325L8.51465 9.05164L8.84473 8.44226C8.84297 8.44131 8.84063 8.44027 8.83887 8.43933L8.84375 8.44226L8.51465 9.05066L8.17578 7.22742C8.15652 7.12395 8.19099 7.01761 8.26758 6.94519L9.62402 5.66394L9.90234 5.40222C10.0927 5.22248 9.98849 4.9031 9.72852 4.86902L9.35254 4.81921L7.49316 4.57605C7.38887 4.56237 7.29849 4.49675 7.25293 4.40222L6.28125 2.37683Z"
    fill="currentColor"
  />
</svg>

<svg xmlns="http://www.w3.org/2000/svg" width="12" height="12" fill="none" data-fui-icon="true" viewBox="0 0 12 12"><path fill="currentColor" d="M4.432 1.603C5.122.4 6.879.4 7.568 1.603l.066.124.692 1.445 1.598.21c1.507.197 2.122 2.059 1.008 3.111L9.769 7.591l.291 1.567c.28 1.507-1.311 2.642-2.641 1.924L6 10.315l-1.419.767c-1.33.718-2.922-.417-2.642-1.924l.291-1.567-1.162-1.098C-.046 5.441.57 3.579 2.076 3.382l1.597-.21.693-1.445zm1.85.774a.312.312 0 0 0-.563 0L4.747 4.4v.001a.31.31 0 0 1-.24.174l-1.86.243-.376.05a.31.31 0 0 0-.173.533l1.634 1.543a.31.31 0 0 1 .092.282l-.41 2.205a.31.31 0 0 0 .454.33l1.984-1.07a.31.31 0 0 1 .296 0l1.984 1.07a.312.312 0 0 0 .458-.237l-.004-.093-.071-.38.33-.61-.006-.003.005.003-.33.609-.338-1.824a.31.31 0 0 1 .092-.282l1.356-1.281.278-.262a.31.31 0 0 0-.173-.533l-.376-.05-1.86-.243a.31.31 0 0 1-.24-.174z"/></svg>
